storybook/icons/teaser/identity-blue.svg

<svg width="86" height="86" viewBox="0 0 86 86" fill="none" xmlns="http://www.w3.org/2000/svg">
<g clip-path="url(#clip0)">
<path d="M35.5891 0H1.42357C0.637401 0 0 0.637401 0 1.42357V52.6719C0 53.4581 0.637401 54.0955 1.42357 54.0955H14.2357V51.2484H2.84713V2.84713H34.1656V5.69426H37.0127V1.42357C37.0127 0.637401 36.3753 0 35.5891 0Z" fill="#0678BE"/>
<path d="M13.4485 7.26731L10.6014 5.84375C10.2008 5.64356 9.72926 5.64356 9.3287 5.84375L6.48157 7.26731C5.99898 7.50843 5.69416 8.00187 5.69434 8.5414V11.3885C5.69416 11.9281 5.99898 12.4215 6.48157 12.6626L9.3287 14.0862C9.72926 14.2864 10.2008 14.2864 10.6014 14.0862L13.4485 12.6626C13.9311 12.4215 14.2359 11.9281 14.2357 11.3885V8.5414C14.2359 8.00187 13.9311 7.50843 13.4485 7.26731ZM11.3886 10.5088L9.96503 11.2206L8.54147 10.5088V9.42116L9.96503 8.70938L11.3886 9.42116V10.5088Z" fill="#0678BE"/>
<path d="M55.519 8.54138H18.5063C17.7202 8.54138 17.0828 9.17878 17.0828 9.96495V61.2133C17.0828 61.9995 17.7202 62.6369 18.5063 62.6369H55.519C56.3052 62.6369 56.9426 61.9995 56.9426 61.2133V9.96495C56.9426 9.17878 56.3052 8.54138 55.519 8.54138ZM54.0955 59.7897H19.9299V11.3885H54.0955V59.7897Z" fill="#0678BE"/>
<path d="M45.4956 28.0826C45.4842 28.0442 45.4657 28.0072 45.4515 27.9702C45.4209 27.8864 45.3823 27.8059 45.3362 27.7296C45.312 27.6912 45.2864 27.6542 45.2579 27.6171C45.2063 27.5502 45.1492 27.488 45.0871 27.4307C45.0515 27.3993 45.0187 27.3666 44.9817 27.3381C44.9447 27.3097 44.9475 27.3054 44.929 27.2926C44.8664 27.2548 44.8013 27.2216 44.734 27.1929C44.707 27.1801 44.687 27.1602 44.66 27.1488L37.5422 24.3017C37.2017 24.1678 36.8234 24.1678 36.483 24.3017L29.3652 27.1488C29.3367 27.1602 29.3154 27.1815 29.2883 27.1943C29.2219 27.2225 29.1579 27.2554 29.0961 27.2926C29.0776 27.3054 29.0634 27.3239 29.0435 27.3381C29.0235 27.3524 28.9737 27.3993 28.9381 27.4307C28.876 27.488 28.8189 27.5502 28.7673 27.6171C28.7388 27.6542 28.7132 27.6912 28.689 27.7296C28.6429 27.8059 28.6043 27.8866 28.5737 27.9702C28.5595 28.0072 28.5409 28.0442 28.5296 28.0826C28.4922 28.2088 28.4726 28.3396 28.4712 28.4713V35.5891C28.4707 36.1713 28.8248 36.695 29.3652 36.9116L36.483 39.7587C36.5001 39.7587 36.5186 39.7587 36.5357 39.7687C36.8419 39.8901 37.1831 39.8901 37.4895 39.7687C37.5066 39.7687 37.5251 39.7687 37.5422 39.7587L44.66 36.9116C45.2004 36.695 45.5543 36.1713 45.554 35.5891V28.4713C45.5526 28.3396 45.533 28.2088 45.4956 28.0826ZM35.589 36.3336L31.3183 34.6254V30.5739L35.589 32.2822V36.3336ZM37.0126 29.7852L33.7284 28.4713L37.0126 27.1573L40.2968 28.4713L37.0126 29.7852ZM42.7068 34.6254L38.4362 36.3336V32.2822L42.7068 30.5739V34.6254Z" fill="#0678BE"/>
<path d="M83.9904 8.54138H61.2134C60.4272 8.54138 59.7898 9.17878 59.7898 9.96495V24.2006C59.7898 24.9868 60.4272 25.6242 61.2134 25.6242H83.9904C84.7766 25.6242 85.414 24.9868 85.414 24.2006V9.96495C85.414 9.17878 84.7766 8.54138 83.9904 8.54138ZM82.5668 22.777H62.6369V11.3885H82.5668V22.777Z" fill="#0678BE"/>
<path d="M68.3313 14.2356H65.4841V17.0827H68.3313V14.2356Z" fill="#0678BE"/>
<path d="M83.9904 28.4713H61.2134C60.4272 28.4713 59.7898 29.1087 59.7898 29.8949V44.1305C59.7898 44.9167 60.4272 45.5541 61.2134 45.5541H83.9904C84.7766 45.5541 85.414 44.9167 85.414 44.1305V29.8949C85.414 29.1087 84.7766 28.4713 83.9904 28.4713ZM82.5668 42.707H62.6369V31.3184H82.5668V42.707Z" fill="#0678BE"/>
<path d="M68.3313 35.5891H65.4841V38.4362H68.3313V35.5891Z" fill="#0678BE"/>
<path d="M79.7196 35.5891H71.1782V38.4362H79.7196V35.5891Z" fill="#0678BE"/>
<path d="M46.9776 65.484H15.6592C14.873 65.484 14.2356 66.1214 14.2356 66.9076V83.9904C14.2356 84.7765 14.873 85.4139 15.6592 85.4139H46.9776C47.7638 85.4139 48.4012 84.7765 48.4012 83.9904V66.9076C48.4012 66.1214 47.7638 65.484 46.9776 65.484ZM45.554 82.5668H17.0827V68.3311H45.554V82.5668Z" fill="#0678BE"/>
<path d="M83.9903 65.484H52.6719C51.8857 65.484 51.2483 66.1214 51.2483 66.9076V83.9904C51.2483 84.7765 51.8857 85.4139 52.6719 85.4139H83.9903C84.7765 85.4139 85.4139 84.7765 85.4139 83.9904V66.9076C85.4139 66.1214 84.7765 65.484 83.9903 65.484ZM82.5667 82.5668H54.0954V73.7635C54.5513 73.9322 55.0328 74.0206 55.519 74.0254H81.1432C81.6293 74.0206 82.1108 73.9322 82.5667 73.7635V82.5668ZM82.5667 69.7547C82.5667 70.5409 81.9293 71.1783 81.1432 71.1783H55.519C54.7328 71.1783 54.0954 70.5409 54.0954 69.7547V68.3311H82.5667V69.7547Z" fill="#0678BE"/>
<path d="M27.6841 72.7513L24.837 71.3278C24.4364 71.1276 23.9649 71.1276 23.5643 71.3278L20.7172 72.7513C20.2346 72.9924 19.9298 73.4859 19.93 74.0254V76.8725C19.9269 77.4147 20.2323 77.9114 20.7172 78.1538L23.5643 79.5773C23.9649 79.7775 24.4364 79.7775 24.837 79.5773L27.6841 78.1538C28.169 77.9114 28.4744 77.4147 28.4713 76.8725V74.0254C28.4715 73.4859 28.1667 72.9924 27.6841 72.7513ZM25.6242 75.9928L24.2007 76.7046L22.7771 75.9928V74.9052L24.2007 74.1934L25.6242 74.9052V75.9928Z" fill="#0678BE"/>
<path d="M59.7898 76.8726H56.9426V79.7197H59.7898V76.8726Z" fill="#0678BE"/>
<path d="M71.1783 76.8726H62.637V79.7197H71.1783V76.8726Z" fill="#0678BE"/>
</g>
<defs>
<clipPath id="clip0">
<rect width="85.4139" height="85.4139" fill="white"/>
</clipPath>
</defs>
</svg>

<svg width="86" height="86" fill="none" xmlns="http://www.w3.org/2000/svg"><g clip-path="url(#clip0)" fill="#0678BE"><path d="M35.59 0H1.423C.637 0 0 .637 0 1.424v51.248c0 .786.637 1.424 1.424 1.424h12.812v-2.848H2.847v-48.4h31.319v2.846h2.847v-4.27C37.013.637 36.375 0 35.589 0z"/><path d="M13.448 7.267l-2.847-1.423c-.4-.2-.872-.2-1.272 0L6.482 7.267a1.424 1.424 0 00-.788 1.274v2.848c0 .54.305 1.033.788 1.274l2.847 1.423c.4.2.872.2 1.272 0l2.847-1.423c.483-.242.788-.735.788-1.274V8.54c0-.54-.305-1.033-.788-1.274zm-2.06 3.242l-1.423.712-1.424-.712V9.42l1.424-.712 1.424.712v1.088zM55.519 8.541H18.506c-.786 0-1.423.638-1.423 1.424v51.248c0 .786.637 1.424 1.423 1.424H55.52c.786 0 1.424-.638 1.424-1.424V9.965c0-.786-.638-1.424-1.424-1.424zM54.096 59.79H19.93V11.389h34.166v48.4z"/><path d="M45.496 28.083c-.012-.039-.03-.076-.044-.113a1.381 1.381 0 00-.194-.353 1.5 1.5 0 00-.17-.186c-.037-.032-.07-.064-.106-.093-.037-.028-.035-.033-.053-.045a1.563 1.563 0 00-.195-.1c-.027-.013-.047-.033-.074-.044l-7.118-2.847a1.447 1.447 0 00-1.059 0l-7.118 2.847c-.028.011-.05.032-.077.045-.066.029-.13.061-.192.099-.018.012-.033.03-.052.045-.02.014-.07.061-.106.093a1.5 1.5 0 00-.249.299 1.388 1.388 0 00-.115.24c-.015.037-.033.074-.044.113a1.421 1.421 0 00-.059.388v7.118c0 .582.354 1.106.894 1.323l7.118 2.847c.017 0 .036 0 .053.01.306.121.647.121.953 0 .018 0 .036 0 .053-.01l7.118-2.847c.54-.217.894-.74.894-1.323v-7.118a1.421 1.421 0 00-.058-.388zm-9.907 8.25l-4.27-1.708v-4.051l4.27 1.708v4.052zm1.424-6.548l-3.285-1.314 3.285-1.314 3.284 1.314-3.284 1.314zm5.694 4.84l-4.27 1.709v-4.052l4.27-1.708v4.051zM83.99 8.541H61.213c-.786 0-1.423.638-1.423 1.424V24.2c0 .786.637 1.423 1.423 1.423H83.99c.787 0 1.424-.637 1.424-1.423V9.965c0-.786-.637-1.424-1.424-1.424zm-1.423 14.236h-19.93V11.388h19.93v11.389z"/><path d="M68.331 14.236h-2.847v2.847h2.847v-2.847zM83.99 28.471H61.213c-.786 0-1.423.638-1.423 1.424V44.13c0 .787.637 1.424 1.423 1.424H83.99c.787 0 1.424-.637 1.424-1.424V29.895c0-.786-.637-1.424-1.424-1.424zm-1.423 14.236h-19.93V31.318h19.93v11.389z"/><path d="M68.331 35.59h-2.847v2.846h2.847V35.59zM79.72 35.59h-8.542v2.846h8.542V35.59zM46.978 65.484H15.659c-.786 0-1.423.637-1.423 1.424V83.99c0 .787.637 1.424 1.423 1.424h31.319c.786 0 1.423-.638 1.423-1.424V66.908c0-.787-.637-1.424-1.423-1.424zm-1.424 17.083H17.083V68.33h28.471v14.236zM83.99 65.484H52.672c-.786 0-1.424.637-1.424 1.424V83.99c0 .787.638 1.424 1.424 1.424H83.99c.787 0 1.424-.638 1.424-1.424V66.908c0-.787-.638-1.424-1.424-1.424zm-1.423 17.083H54.095v-8.803c.456.168.938.257 1.424.261h25.624a4.221 4.221 0 001.424-.262v8.804zm0-12.812c0 .786-.638 1.423-1.424 1.423H55.52a1.424 1.424 0 01-1.424-1.423V68.33h28.472v1.424z"/><path d="M27.684 72.751l-2.847-1.423c-.4-.2-.872-.2-1.273 0l-2.847 1.423a1.424 1.424 0 00-.787 1.274v2.847a1.424 1.424 0 00.787 1.282l2.847 1.423c.4.2.872.2 1.273 0l2.847-1.423c.485-.243.79-.74.787-1.281v-2.848c0-.54-.304-1.033-.787-1.274zm-2.06 3.242l-1.423.712-1.424-.712v-1.088l1.424-.712 1.423.712v1.088zM59.79 76.873h-2.847v2.847h2.847v-2.847zM71.178 76.873h-8.541v2.847h8.541v-2.847z"/></g><defs><clipPath id="clip0"><path fill="#fff" d="M0 0h85.414v85.414H0z"/></clipPath></defs></svg>
